X:88
T: ZU WESEL AUF DER SCHANZ, DA STAND EIN JUNGER KNABE
N: Z0088
O: Europa, Mitteleuropa, Deutschland, Westfalen
R: Sagen - Lied, Romanze, Tod, Soldaten - Lied, napoleonischer Krieg
M: 2/4
L: 1/16
K: G
d2 | B2B2B2B2 | B6
A2 | B2A2B2c2 | B2A2z2
A2 | A2A2A2A2 | A4A2
B2 | c2B2c2d2 | c2B2z2
d2 | e2d2e2f2 | g2fed2
c2 | B4A4 | G6

@@@ Tune index: 9846
